ui/StatusQ/src/assets/img/icons/status-logo-white-with-red-dot.svg

<svg fill="none" height="32" viewBox="0 0 32 32" width="32" xmlns="http://www.w3.org/2000/svg" xmlns:xlink="http://www.w3.org/1999/xlink"><clipPath id="a"><path d="m2 2h28v28h-28z"/></clipPath><g clip-path="url(#a)"><path clip-rule="evenodd" d="m2 16c0-10.5 3.5-14 14-14s14 3.5 14 14-3.5 14-14 14-14-3.5-14-14zm10.8076-.7547c.228-2.8552 2.2781-5.37912 5.0548-5.53786 1.7049-.09723 3.4078.94386 3.4998 2.63436.0746 1.3605-.7705 2.3533-2.2395 2.7342-.347.091-.7026.1464-1.0611.1654-.7806.044-1.4153-.0236-2.05-.0912-.634-.0675-1.268-.135-2.0476-.0914-.36.0183-.7172.0721-1.0664.1608-.014.0043-.0295.0086-.045.0128l-.0001.0001c-.0155.0043-.0309.0086-.0449.0128zm6.3918 1.5092c-.228 2.8553-2.2781 5.3792-5.0548 5.5379-1.7049.0973-3.4078-.9438-3.4998-2.6343-.0713-1.3605.7705-2.3533 2.2395-2.7336.347-.091.7026-.1464 1.061-.1653.7797-.044 1.4137.0233 2.0476.0907.6348.0674 1.2694.1348 2.0501.0905.36-.0183.7172-.0721 1.0664-.1607l.0331-.0091.0001-.0001c.0193-.0052.0392-.0106.0568-.016z" fill="#fff" fill-rule="evenodd"/></g><circle cx="25" cy="25" fill="#eb2222" r="4.776"/></svg>

<svg width="32" height="32" viewBox="0 0 32 32" fill="none" xmlns="http://www.w3.org/2000/svg">
<g clip-path="url(#clip0_7558_1933)">
<path fill-rule="evenodd" clip-rule="evenodd" d="M2 16C2 5.5 5.5 2 16 2C26.5 2 30 5.5 30 16C30 26.5 26.5 30 16 30C5.5 30 2 26.5 2 16ZM12.8076 15.2453C13.0356 12.3901 15.0857 9.86618 17.8624 9.70744C19.5673 9.61021 21.2702 10.6513 21.3622 12.3418C21.4368 13.7023 20.5917 14.6951 19.1227 15.076C18.7757 15.167 18.4201 15.2224 18.0616 15.2414C17.281 15.2854 16.6463 15.2178 16.0116 15.1502H16.0116L16.0116 15.1502C15.3776 15.0827 14.7436 15.0152 13.964 15.0588C13.604 15.0771 13.2468 15.1309 12.8976 15.2196C12.8836 15.2239 12.8681 15.2282 12.8526 15.2324L12.8525 15.2325C12.837 15.2368 12.8216 15.2411 12.8076 15.2453ZM19.1994 16.7545C18.9714 19.6098 16.9213 22.1337 14.1446 22.2924C12.4397 22.3897 10.7368 21.3486 10.6448 19.6581C10.5735 18.2976 11.4153 17.3048 12.8843 16.9245C13.2313 16.8335 13.5869 16.7781 13.9453 16.7592C14.725 16.7152 15.359 16.7825 15.9929 16.8499C16.6277 16.9173 17.2623 16.9847 18.043 16.9404C18.403 16.9221 18.7602 16.8683 19.1094 16.7797L19.1425 16.7706L19.1426 16.7705C19.1619 16.7653 19.1818 16.7599 19.1994 16.7545Z" fill="white"/>
</g>
<defs>
<clipPath id="clip0_7558_1933">
<rect width="28" height="28" fill="white" transform="translate(2 2)"/>
</clipPath>
</defs>
<circle  r="4.776" fill="#EB2222" cx="25" cy="25"/>
</svg>
